SVG/hospital-o.svg

<?xml version="1.0" encoding="utf-8"?>
<!-- Generated by IcoMoon.io -->
<!DOCTYPE svg PUBLIC "-//W3C//DTD SVG 1.1//EN" "http://www.w3.org/Graphics/SVG/1.1/DTD/svg11.dtd">
<svg version="1.1" xmlns="http://www.w3.org/2000/svg" xmlns:xlink="http://www.w3.org/1999/xlink" width="11" height="14" viewBox="0 0 11 14">
<path fill="#444444" d="M3 10.25v0.5q0 0.102-0.074 0.176t-0.176 0.074h-0.5q-0.102 0-0.176-0.074t-0.074-0.176v-0.5q0-0.102 0.074-0.176t0.176-0.074h0.5q0.102 0 0.176 0.074t0.074 0.176zM3 8.25v0.5q0 0.102-0.074 0.176t-0.176 0.074h-0.5q-0.102 0-0.176-0.074t-0.074-0.176v-0.5q0-0.102 0.074-0.176t0.176-0.074h0.5q0.102 0 0.176 0.074t0.074 0.176zM5 8.25v0.5q0 0.102-0.074 0.176t-0.176 0.074h-0.5q-0.102 0-0.176-0.074t-0.074-0.176v-0.5q0-0.102 0.074-0.176t0.176-0.074h0.5q0.102 0 0.176 0.074t0.074 0.176zM3 6.25v0.5q0 0.102-0.074 0.176t-0.176 0.074h-0.5q-0.102 0-0.176-0.074t-0.074-0.176v-0.5q0-0.102 0.074-0.176t0.176-0.074h0.5q0.102 0 0.176 0.074t0.074 0.176zM9 10.25v0.5q0 0.102-0.074 0.176t-0.176 0.074h-0.5q-0.102 0-0.176-0.074t-0.074-0.176v-0.5q0-0.102 0.074-0.176t0.176-0.074h0.5q0.102 0 0.176 0.074t0.074 0.176zM7 8.25v0.5q0 0.102-0.074 0.176t-0.176 0.074h-0.5q-0.102 0-0.176-0.074t-0.074-0.176v-0.5q0-0.102 0.074-0.176t0.176-0.074h0.5q0.102 0 0.176 0.074t0.074 0.176zM5 6.25v0.5q0 0.102-0.074 0.176t-0.176 0.074h-0.5q-0.102 0-0.176-0.074t-0.074-0.176v-0.5q0-0.102 0.074-0.176t0.176-0.074h0.5q0.102 0 0.176 0.074t0.074 0.176zM9 8.25v0.5q0 0.102-0.074 0.176t-0.176 0.074h-0.5q-0.102 0-0.176-0.074t-0.074-0.176v-0.5q0-0.102 0.074-0.176t0.176-0.074h0.5q0.102 0 0.176 0.074t0.074 0.176zM7 6.25v0.5q0 0.102-0.074 0.176t-0.176 0.074h-0.5q-0.102 0-0.176-0.074t-0.074-0.176v-0.5q0-0.102 0.074-0.176t0.176-0.074h0.5q0.102 0 0.176 0.074t0.074 0.176zM9 6.25v0.5q0 0.102-0.074 0.176t-0.176 0.074h-0.5q-0.102 0-0.176-0.074t-0.074-0.176v-0.5q0-0.102 0.074-0.176t0.176-0.074h0.5q0.102 0 0.176 0.074t0.074 0.176zM7 13h3v-9h-2v0.25q0 0.312-0.219 0.531t-0.531 0.219h-3.5q-0.312 0-0.531-0.219t-0.219-0.531v-0.25h-2v9h3v-1.75q0-0.102 0.074-0.176t0.176-0.074h2.5q0.102 0 0.176 0.074t0.074 0.176v1.75zM7 3.75v-2.5q0-0.102-0.074-0.176t-0.176-0.074h-0.5q-0.102 0-0.176 0.074t-0.074 0.176v0.75h-1v-0.75q0-0.102-0.074-0.176t-0.176-0.074h-0.5q-0.102 0-0.176 0.074t-0.074 0.176v2.5q0 0.102 0.074 0.176t0.176 0.074h0.5q0.102 0 0.176-0.074t0.074-0.176v-0.75h1v0.75q0 0.102 0.074 0.176t0.176 0.074h0.5q0.102 0 0.176-0.074t0.074-0.176zM11 3.5v10q0 0.203-0.148 0.352t-0.352 0.148h-10q-0.203 0-0.352-0.148t-0.148-0.352v-10q0-0.203 0.148-0.352t0.352-0.148h2.5v-2.25q0-0.312 0.219-0.531t0.531-0.219h3.5q0.312 0 0.531 0.219t0.219 0.531v2.25h2.5q0.203 0 0.352 0.148t0.148 0.352z"></path>
</svg>

<svg xmlns="http://www.w3.org/2000/svg" viewBox="0 0 11 14"><path d="M3 10.25v.5q0 .102-.074.176T2.75 11h-.5q-.102 0-.176-.074T2 10.75v-.5q0-.102.074-.176T2.25 10h.5q.102 0 .176.074T3 10.25zm0-2v.5q0 .102-.074.176T2.75 9h-.5q-.102 0-.176-.074T2 8.75v-.5q0-.102.074-.176T2.25 8h.5q.102 0 .176.074T3 8.25zm2 0v.5q0 .102-.074.176T4.75 9h-.5q-.102 0-.176-.074T4 8.75v-.5q0-.102.074-.176T4.25 8h.5q.102 0 .176.074T5 8.25zm-2-2v.5q0 .102-.074.176T2.75 7h-.5q-.102 0-.176-.074T2 6.75v-.5q0-.102.074-.176T2.25 6h.5q.102 0 .176.074T3 6.25zm6 4v.5q0 .102-.074.176T8.75 11h-.5q-.102 0-.176-.074T8 10.75v-.5q0-.102.074-.176T8.25 10h.5q.102 0 .176.074T9 10.25zm-2-2v.5q0 .102-.074.176T6.75 9h-.5q-.102 0-.176-.074T6 8.75v-.5q0-.102.074-.176T6.25 8h.5q.102 0 .176.074T7 8.25zm-2-2v.5q0 .102-.074.176T4.75 7h-.5q-.102 0-.176-.074T4 6.75v-.5q0-.102.074-.176T4.25 6h.5q.102 0 .176.074T5 6.25zm4 2v.5q0 .102-.074.176T8.75 9h-.5q-.102 0-.176-.074T8 8.75v-.5q0-.102.074-.176T8.25 8h.5q.102 0 .176.074T9 8.25zm-2-2v.5q0 .102-.074.176T6.75 7h-.5q-.102 0-.176-.074T6 6.75v-.5q0-.102.074-.176T6.25 6h.5q.102 0 .176.074T7 6.25zm2 0v.5q0 .102-.074.176T8.75 7h-.5q-.102 0-.176-.074T8 6.75v-.5q0-.102.074-.176T8.25 6h.5q.102 0 .176.074T9 6.25zM7 13h3V4H8v.25q0 .312-.22.53T7.25 5h-3.5q-.312 0-.53-.22T3 4.25V4H1v9h3v-1.75q0-.102.074-.176T4.25 11h2.5q.102 0 .176.074T7 11.25V13zm0-9.25v-2.5q0-.102-.074-.176T6.75 1h-.5q-.102 0-.176.074T6 1.25V2H5v-.75q0-.102-.074-.176T4.75 1h-.5q-.102 0-.176.074T4 1.25v2.5q0 .102.074.176T4.25 4h.5q.102 0 .176-.074T5 3.75V3h1v.75q0 .102.074.176T6.25 4h.5q.102 0 .176-.074T7 3.75zm4-.25v10q0 .203-.148.352T10.5 14H.5q-.203 0-.352-.148T0 13.5v-10q0-.203.148-.352T.5 3H3V.75q0-.312.22-.53T3.75 0h3.5q.312 0 .53.22T8 .75V3h2.5q.203 0 .352.148T11 3.5z" /></svg>
